build/svg/cmd/sc_photoalbumdialog.svg

<?xml version="1.0" encoding="UTF-8" standalone="no"?>
<svg
   xmlns:dc="http://purl.org/dc/elements/1.1/"
   xmlns:cc="http://creativecommons.org/ns#"
   xmlns:rdf="http://www.w3.org/1999/02/22-rdf-syntax-ns#"
   xmlns:svg="http://www.w3.org/2000/svg"
   xmlns="http://www.w3.org/2000/svg"
   xmlns:sodipodi="http://sodipodi.sourceforge.net/DTD/sodipodi-0.dtd"
   xmlns:inkscape="http://www.inkscape.org/namespaces/inkscape"
   viewBox="0 0 16 16"
   version="1.1"
   id="svg4"
   sodipodi:docname="sc_photoalbumdialog.svg"
   inkscape:export-filename="/home/jupiter007/Libreoffice yaru theme fullcolor/build/cmd/sc_photoalbumdialog.png"
   inkscape:export-xdpi="95"
   inkscape:export-ydpi="95"
   inkscape:version="0.92.5 (2060ec1f9f, 2020-04-08)">
  <metadata
     id="metadata10">
    <rdf:RDF>
      <cc:Work
         rdf:about="">
        <dc:format>image/svg+xml</dc:format>
        <dc:type
           rdf:resource="http://purl.org/dc/dcmitype/StillImage" />
      </cc:Work>
    </rdf:RDF>
  </metadata>
  <defs
     id="defs8" />
  <sodipodi:namedview
     pagecolor="#ffffff"
     bordercolor="#666666"
     borderopacity="1"
     objecttolerance="10"
     gridtolerance="10"
     guidetolerance="10"
     inkscape:pageopacity="0"
     inkscape:pageshadow="2"
     inkscape:window-width="1920"
     inkscape:window-height="1011"
     id="namedview6"
     showgrid="false"
     inkscape:zoom="14.75"
     inkscape:cx="0.44067797"
     inkscape:cy="8"
     inkscape:window-x="0"
     inkscape:window-y="32"
     inkscape:window-maximized="1"
     inkscape:current-layer="svg4" />
  <path
     style="font-style:normal;font-variant:normal;font-weight:normal;font-stretch:normal;font-size:15px;line-height:125%;font-family:Ubuntu;-inkscape-font-specification:Ubuntu;text-align:center;letter-spacing:0px;word-spacing:0px;writing-mode:lr-tb;text-anchor:middle;display:inline;opacity:0.6;fill:#000000;fill-opacity:1;stroke:none;stroke-width:0.99980211"
     d="M 3.994141,0 C 2.735941,0.0145 1.81525,-0.030604 1.0625,0.3847656 0.68613,0.5924256 0.389269,0.9441525 0.224609,1.3828125 0.059939,1.8214825 0,2.3424 0,3 v 1.488281 4.5123023 c 0,0.65761 0.0599,1.1785767 0.224609,1.6171877 0.16468,0.438611 0.461531,0.788524 0.837891,0.996093 0.75272,0.41513 1.673541,0.371649 2.931641,0.386719 h 0.002 6.005859 0.0039 c 1.25819,-0.0145 2.178891,0.0306 2.931641,-0.384766 0.37637,-0.20766 0.673221,-0.559386 0.837891,-0.998046 C 13.939971,10.1791 14.00005,9.6581933 14.00005,9.0005833 V 4.466797 3 c 0,-0.6576 -0.0599,-1.1785775 -0.224609,-1.6171875 C 13.610761,0.9442125 13.31391,0.5942787 12.93755,0.3867188 12.18478,-0.0284112 11.263949,0.01508 10.005859,0 h -0.002 -6.0058591 z"
     id="path829"
     inkscape:connector-curvature="0"
     sodipodi:nodetypes="cccscsccccccccscscccccc" />
  <path
     sodipodi:nodetypes="cccccccsccccccc"
     style="opacity:1;vector-effect:none;fill:#d85eca;fill-opacity:1;stroke:none;stroke-width:1;stroke-linecap:round;stroke-linejoin:bevel;stroke-miterlimit:4;stroke-dasharray:none;stroke-dashoffset:0;stroke-opacity:1"
     d="M 6.983369,1.0271848 C 5.426788,1.0379808 3.873379,1.0154328 2.323428,1.0659598 1.862199,1.1086278 1.30724,1.2723792 1.168088,1.7759266 0.949094,2.411273 1.059674,3.1097138 1.022292,3.7578509 c -0.0078,2.2970844 -0.02297,3.5964284 0.02152,5.8857804 0.0391,0.4619287 0.202551,1.0126657 0.698756,1.1636657 0.632456,0.225082 1.284144,0.12274 1.935974,0.154298 1.424235,0.0068 2.850563,0.01102 4.2764202,0.01131 1.7045312,3.5e-4 1.4083882,-0.005 3.1071898,-0.01851 0.511911,-0.01201 1.183699,0.01993 1.584745,-0.405191 0.421097,-0.539783 0.287073,-1.2680207 0.322745,-1.9037867 0.01187,-2.444323 0.02769,-3.9110953 -0.0219,-6.3567948 C 12.898466,1.8865822 12.77775,1.4256704 12.372603,1.2441473 11.704434,0.9500499 10.946398,1.0761284 10.246682,1.0385746 8.4922754,1.026772 8.7378074,1.0260902 6.983369,1.0271848 Z"
     id="path831"
     inkscape:connector-curvature="0" />
  <path
     sodipodi:nodetypes="cccscsccccccccscscccccc"
     inkscape:connector-curvature="0"
     id="path4237-1"
     d="m 5.9940906,2.9994167 c -1.2582,0.0145 -2.178891,-0.030604 -2.931641,0.3847656 -0.37637,0.20766 -0.673231,0.5593869 -0.837891,0.9980469 -0.16467,0.43867 -0.224609,0.9595875 -0.224609,1.6171875 V 7.4876977 12 c 0,0.65761 0.0599,1.178577 0.224609,1.617188 0.16468,0.438611 0.461531,0.788524 0.837891,0.996093 0.75272,0.41513 1.673541,0.371649 2.931641,0.386719 h 0.002 6.0058594 0.0039 c 1.25819,-0.0145 2.178891,0.0306 2.931641,-0.384766 0.37637,-0.20766 0.673221,-0.559386 0.837891,-0.998046 C 15.939921,13.178517 16,12.65761 16,12 V 7.4662137 5.9994167 C 16,5.3418167 15.9401,4.8208392 15.775391,4.3822292 15.610711,3.9436292 15.31386,3.5936954 14.9375,3.3861355 14.18473,2.9710055 13.263899,3.0144967 12.005809,2.9994167 h -0.002 -6.0058595 z"
     style="font-style:normal;font-variant:normal;font-weight:normal;font-stretch:normal;font-size:15px;line-height:125%;font-family:Ubuntu;-inkscape-font-specification:Ubuntu;text-align:center;letter-spacing:0px;word-spacing:0px;writing-mode:lr-tb;text-anchor:middle;display:inline;opacity:0.6;fill:#000000;fill-opacity:1;stroke:none;stroke-width:0.99980211" />
  <path
     inkscape:connector-curvature="0"
     id="path1993"
     d="m 8.9833186,4.0266015 c -1.556581,0.010796 -3.10999,-0.011752 -4.659941,0.038775 -0.461229,0.042668 -1.016188,0.2064194 -1.15534,0.7099668 -0.218994,0.6353464 -0.108414,1.3337872 -0.145796,1.9819243 -0.0078,2.2970844 -0.02297,3.5964284 0.02152,5.8857804 0.0391,0.461929 0.202551,1.012666 0.698756,1.163666 0.632456,0.225082 1.284144,0.12274 1.935974,0.154298 1.424235,0.0068 2.850563,0.01102 4.2764202,0.01131 1.7045312,3.5e-4 1.4083882,-0.005 3.1071902,-0.01851 0.511911,-0.01201 1.183699,0.01993 1.584745,-0.405191 0.421097,-0.539783 0.287073,-1.268021 0.322745,-1.903787 0.01187,-2.444323 0.02769,-3.9110953 -0.0219,-6.3567948 C 14.898416,4.8859989 14.7777,4.4250871 14.372553,4.243564 13.704384,3.9494666 12.946348,4.0755451 12.246632,4.0379913 10.492225,4.0261887 10.737757,4.0255069 8.9833186,4.0266015 Z"
     style="opacity:1;vector-effect:none;fill:#d85eca;fill-opacity:1;stroke:none;stroke-width:1;stroke-linecap:round;stroke-linejoin:bevel;stroke-miterlimit:4;stroke-dasharray:none;stroke-dashoffset:0;stroke-opacity:1"
     sodipodi:nodetypes="cccccccsccccccc" />
  <path
     style="color:#000000;display:inline;overflow:visible;visibility:visible;opacity:1;fill:#ffffff;fill-opacity:1;fill-rule:nonzero;stroke:none;stroke-width:18.28524208;marker:none;enable-background:accumulate"
     d="m 6.9940906,7.9994167 -2,4.0000003 H 12.994091 L 10.483319,8.9994167 8.9833186,10.999417 Z"
     id="path1099"
     inkscape:connector-curvature="0"
     sodipodi:nodetypes="cccccc" />
  <path
     style="opacity:1;vector-effect:none;fill:#ffffff;fill-opacity:1;stroke:none;stroke-width:1.88642752;stroke-linecap:round;stroke-linejoin:bevel;stroke-miterlimit:4;stroke-dasharray:none;stroke-dashoffset:0;stroke-opacity:1"
     id="path3397"
     sodipodi:type="arc"
     sodipodi:cx="10.939274"
     sodipodi:cy="7.0477285"
     sodipodi:rx="0.94321376"
     sodipodi:ry="0.94321376"
     sodipodi:start="6.2325882"
     sodipodi:end="6.2319424"
     sodipodi:open="true"
     d="M 11.881281,7.000025 A 0.94321376,0.94321376 0 0 1 10.987129,7.9897275 0.94321376,0.94321376 0 0 1 9.9972826,7.0957362 0.94321376,0.94321376 0 0 1 10.891114,6.1057451 0.94321376,0.94321376 0 0 1 11.88125,6.9994167" />
</svg>

<svg xmlns="http://www.w3.org/2000/svg" viewBox="0 0 16 16"><path style="line-height:125%;-inkscape-font-specification:Ubuntu;text-align:center" d="M3.994 0C2.736.015 1.815-.03 1.062.385a1.88 1.88 0 00-.837.998C.06 1.82 0 2.343 0 3V9.001c0 .657.06 1.178.225 1.617.164.438.461.788.838.996.752.415 1.673.372 2.931.387h6.012c1.258-.015 2.179.03 2.932-.385a1.88 1.88 0 00.837-.998C13.94 10.179 14 9.658 14 9V3c0-.658-.06-1.179-.225-1.617a1.875 1.875 0 00-.837-.996C12.185-.028 11.264.015 10.006 0H3.998z" font-weight="400" font-size="15" font-family="Ubuntu" letter-spacing="0" word-spacing="0" text-anchor="middle" opacity=".6"/><path d="M6.983 1.027c-1.556.011-3.11-.012-4.66.039-.46.043-1.016.206-1.155.71-.219.635-.108 1.334-.146 1.982-.008 2.297-.023 3.596.022 5.886.039.462.202 1.012.699 1.163.632.225 1.284.123 1.936.155 1.424.006 2.85.01 4.276.01 1.704.001 1.408-.004 3.107-.018.512-.012 1.184.02 1.585-.405.421-.54.287-1.268.323-1.904.012-2.444.027-3.91-.022-6.356-.05-.402-.17-.863-.575-1.045-.669-.294-1.427-.168-2.126-.205-1.755-.012-1.51-.013-3.264-.012z" fill="#d85eca"/><path d="M5.994 3c-1.258.014-2.179-.031-2.932.384a1.88 1.88 0 00-.837.998C2.06 4.821 2 5.342 2 6V12c0 .658.06 1.179.225 1.617.164.439.461.789.837.996.753.415 1.674.372 2.932.387h6.012c1.258-.015 2.179.03 2.931-.385a1.88 1.88 0 00.838-.998c.165-.438.225-.96.225-1.617V5.999c0-.657-.06-1.178-.225-1.617a1.875 1.875 0 00-.838-.996c-.752-.415-1.673-.372-2.931-.387H5.998z" style="line-height:125%;-inkscape-font-specification:Ubuntu;text-align:center" font-weight="400" font-size="15" font-family="Ubuntu" letter-spacing="0" word-spacing="0" text-anchor="middle" opacity=".6"/><path d="M8.983 4.027c-1.556.01-3.11-.012-4.66.038-.46.043-1.016.207-1.155.71-.219.636-.108 1.334-.146 1.982-.008 2.297-.023 3.597.022 5.886.039.462.202 1.013.699 1.164.632.225 1.284.122 1.935.154 1.425.007 2.851.011 4.277.011 1.704 0 1.408-.005 3.107-.018.512-.012 1.184.02 1.585-.405.42-.54.287-1.268.323-1.904.011-2.444.027-3.911-.022-6.357-.05-.402-.17-.863-.575-1.044-.669-.295-1.427-.168-2.126-.206-1.755-.012-1.51-.012-3.264-.011z" fill="#d85eca"/><path style="marker:none" d="M6.994 8l-2 4h8l-2.51-3-1.5 2z" color="#000" overflow="visible" fill="#fff"/><path d="M11.881 7a.943.943 0 01-.894.99.943.943 0 01-.99-.894.943.943 0 01.894-.99.943.943 0 01.99.893" fill="#fff"/></svg>
